svg/fluentui-system-icons/ic_fluent_shield_task_28_filled.svg

<svg width="28" height="28" viewBox="0 0 28 28" fill="none" xmlns="http://www.w3.org/2000/svg">
<path d="M14.4381 2.14208C14.1759 1.95264 13.8218 1.95264 13.5596 2.14208C12.9169 2.60645 11.4721 3.45359 9.6635 4.18313C7.85341 4.91328 5.74138 5.5 3.75 5.5C3.33579 5.5 3 5.83579 3 6.25V14.002C3 17.0293 4.70264 19.8431 6.83716 21.9516C8.97042 24.0589 11.6645 25.5914 13.8701 25.9756L13.9988 25.998L14.1275 25.9756C16.3331 25.5914 19.0272 24.0589 21.1605 21.9516C23.295 19.8431 24.9976 17.0293 24.9976 14.002V6.25C24.9976 5.83579 24.6618 5.5 24.2476 5.5C22.2575 5.5 20.1454 4.9133 18.335 4.18311C16.526 3.45355 15.0807 2.60639 14.4381 2.14208ZM19.7716 10.289L12.0216 17.789C11.7373 18.0641 11.2882 18.0711 10.9955 17.805L8.2455 15.305C7.939 15.0263 7.91641 14.552 8.19504 14.2455C8.47368 13.939 8.94801 13.9164 9.2545 14.195L11.484 16.2218L18.7284 9.21105C19.0261 8.923 19.5009 8.93078 19.789 9.22843C20.077 9.52609 20.0692 10.0009 19.7716 10.289Z" fill="#212121"/>
</svg>

<svg xmlns="http://www.w3.org/2000/svg" width="28" height="28"><path d="M14.438 2.142a.75.75 0 0 0-.878 0c-.643.464-2.088 1.312-3.896 2.041C7.854 4.913 5.74 5.5 3.75 5.5a.75.75 0 0 0-.75.75v7.752c0 3.027 1.703 5.841 3.837 7.95 2.133 2.107 4.828 3.64 7.033 4.024l.129.022.128-.022c2.206-.385 4.9-1.917 7.033-4.024 2.135-2.109 3.838-4.923 3.838-7.95V6.25a.75.75 0 0 0-.75-.75c-1.99 0-4.103-.587-5.913-1.317-1.809-.73-3.254-1.577-3.897-2.04Zm5.334 8.147-7.75 7.5a.75.75 0 0 1-1.027.016l-2.75-2.5a.75.75 0 0 1 1.01-1.11l2.229 2.027 7.244-7.011a.75.75 0 0 1 1.044 1.078Z"/></svg>
